usr/share/icons/biglinux-icons-material/scalable/apps/com.github.paolostivanin.OTPClient.svg

<svg width="24" height="24" viewBox="0 0 24 24" fill="none" xmlns="http://www.w3.org/2000/svg">
<path d="M21.9428 10.1488L21.9431 10.1547C22.046 11.7397 22.0093 13.3208 21.8331 14.8987C21.7078 15.9484 21.4369 16.9565 21.0199 17.9257C20.2822 19.5168 19.1121 20.5958 17.4653 21.2031C16.0224 21.6892 14.5403 21.945 13.0156 21.9708L12.9981 21.9711L12.9806 21.972C11.2323 22.0629 9.5027 21.9325 7.78957 21.5806C6.28739 21.2448 5.13069 20.6332 4.26712 19.7797C3.40329 18.926 2.77875 17.7768 2.42661 16.2795C2.11625 14.8735 1.97564 13.4511 2.00463 12.0107L2.00506 11.9893L2.00458 11.9679C1.96996 10.4398 2.13168 8.93437 2.48993 7.44954C2.85755 6.05717 3.46879 4.97997 4.29647 4.17203C5.12607 3.36222 6.22136 2.77583 7.62799 2.44141L7.628 2.44143L7.63418 2.43991C8.29392 2.27862 8.96175 2.16984 9.63811 2.11349C9.79148 2.11159 9.94462 2.09421 10.096 2.05983C11.4549 1.97485 12.8137 1.9804 14.1725 2.07649C15.3735 2.17039 16.5345 2.43016 17.6586 2.85632C19.4146 3.58275 20.5927 4.81326 21.2422 6.59922C21.6378 7.75022 21.8712 8.93258 21.9428 10.1488Z" fill="url(#paint0_radial_3_383)" stroke="#FA6E6E" stroke-width="2"/>
<path d="M10.4702 5.07228C10.4711 5.07229 10.472 5.0723 10.4729 5.07231C10.6183 5.07339 10.7621 5.03796 10.9072 5.03002C11.7481 4.98407 12.589 4.99087 13.4297 5.05043C14.2581 5.11497 15.0599 5.29469 15.8353 5.58959C17.1243 6.12028 18.0064 7.04075 18.4814 8.351C18.753 9.13986 18.9134 9.95104 18.9625 10.7845C19.0304 11.8312 19.0061 12.8755 18.8896 13.9175C18.8024 14.6499 18.6129 15.3542 18.321 16.0305C17.7797 17.203 16.9026 18.0117 15.6895 18.4567C14.7065 18.7889 13.6957 18.9637 12.6571 18.9813C11.4888 19.0421 10.3322 18.9546 9.18725 18.719C7.07989 18.2496 5.77992 16.9648 5.28737 14.8647C5.07834 13.9194 4.98358 12.9625 5.00308 11.994C4.97975 10.9643 5.08909 9.94906 5.3311 8.94845" stroke="#FA6E6E" stroke-width="1.5" stroke-linecap="round"/>
<path d="M13.009 9.00005C13.009 8.44774 12.5572 8 11.9999 8C11.4426 8 10.9909 8.44774 10.9909 9.00005V14.9999C10.9909 15.5523 11.4426 16 11.9999 16C12.5572 16 13.009 15.5523 13.009 14.9999V9.00005Z" fill="#65B5F7"/>
<path d="M8.87388 12.6338C8.39125 12.91 8.22589 13.5216 8.50453 13.9999C8.78318 14.4782 9.40031 14.6421 9.88294 14.366L15.1258 11.366C15.6085 11.0899 15.7738 10.4782 15.4952 9.99992C15.2165 9.52161 14.5994 9.35772 14.1168 9.63388L8.87388 12.6338Z" fill="#65B5F7"/>
<path d="M14.1171 14.366C14.5997 14.6422 15.2168 14.4783 15.4955 14C15.7741 13.5217 15.6088 12.9101 15.1261 12.6339L9.88323 9.63396C9.40061 9.3578 8.78347 9.52168 8.50482 10C8.22618 10.4783 8.39154 11.0899 8.87417 11.3661L14.1171 14.366Z" fill="#65B5F7"/>
<defs>
<radialGradient id="paint0_radial_3_383" cx="0" cy="0" r="1" gradientUnits="userSpaceOnUse" gradientTransform="translate(12 1) rotate(90) scale(22)">
<stop stop-color="#FAFAFA"/>
<stop offset="1" stop-color="#CCCCCC"/>
</radialGradient>
</defs>
</svg>

<svg xmlns="http://www.w3.org/2000/svg" width="24" height="24" fill="none"><path fill="url(#a)" stroke="#FA6E6E" stroke-width="2" d="M21.943 10.149v.006a26.937 26.937 0 0 1-.11 4.744 10.879 10.879 0 0 1-.813 3.027c-.738 1.59-1.908 2.67-3.555 3.277a14.625 14.625 0 0 1-4.45.768h-.017l-.017.001a20.42 20.42 0 0 1-5.191-.391c-1.503-.336-2.66-.948-3.523-1.801-.864-.854-1.488-2.003-1.84-3.5a18.046 18.046 0 0 1-.422-4.27V11.969A17.49 17.49 0 0 1 2.49 7.45c.368-1.393.979-2.47 1.806-3.278.83-.81 1.925-1.396 3.332-1.73l.006-.002c.66-.161 1.328-.27 2.004-.327.153-.001.307-.019.458-.053a30.627 30.627 0 0 1 4.076.016c1.201.094 2.363.354 3.487.78 1.756.727 2.934 1.957 3.583 3.743.396 1.151.63 2.334.7 3.55Z"/><path stroke="#FA6E6E" stroke-linecap="round" stroke-width="1.5" d="M10.47 5.072h.003c.145.001.29-.034.434-.042.841-.046 1.682-.04 2.523.02.828.065 1.63.245 2.405.54 1.29.53 2.171 1.45 2.646 2.761.272.789.432 1.6.481 2.433a17.782 17.782 0 0 1-.072 3.133 7.56 7.56 0 0 1-.569 2.114c-.541 1.172-1.418 1.98-2.632 2.426a9.941 9.941 0 0 1-3.032.524 13.631 13.631 0 0 1-3.47-.262c-2.107-.47-3.407-1.754-3.9-3.854a12.12 12.12 0 0 1-.284-2.871c-.023-1.03.086-2.045.328-3.046"/><path fill="#65B5F7" d="M13.009 9c0-.552-.452-1-1.01-1-.556 0-1.008.448-1.008 1v6c0 .552.452 1 1.009 1 .557 0 1.009-.448 1.009-1V9Z"/><path fill="#65B5F7" d="M8.874 12.634A.995.995 0 0 0 8.504 14c.28.478.896.642 1.379.366l5.243-3a.995.995 0 0 0 .37-1.366 1.014 1.014 0 0 0-1.38-.366l-5.242 3Z"/><path fill="#65B5F7" d="M14.117 14.366c.483.276 1.1.112 1.378-.366a.995.995 0 0 0-.369-1.366l-5.243-3A1.014 1.014 0 0 0 8.505 10a.995.995 0 0 0 .37 1.366l5.242 3Z"/><defs><radialGradient id="a" cx="0" cy="0" r="1" gradientTransform="matrix(0 22 -22 0 12 1)" gradientUnits="userSpaceOnUse"><stop stop-color="#FAFAFA"/><stop offset="1" stop-color="#CCC"/></radialGradient></defs></svg>
